static/img/d4.svg

<?xml version="1.0" encoding="UTF-8" standalone="no"?>
<svg
   xmlns:dc="http://purl.org/dc/elements/1.1/"
   xmlns:cc="http://creativecommons.org/ns#"
   xmlns:rdf="http://www.w3.org/1999/02/22-rdf-syntax-ns#"
   xmlns:svg="http://www.w3.org/2000/svg"
   xmlns="http://www.w3.org/2000/svg"
   xmlns:sodipodi="http://sodipodi.sourceforge.net/DTD/sodipodi-0.dtd"
   xmlns:inkscape="http://www.inkscape.org/namespaces/inkscape"
   width="110"
   height="110"
   viewBox="0 0 29.104166 29.104166"
   version="1.1"
   id="svg8435"
   sodipodi:docname="d4.svg"
   inkscape:version="0.92.1 r15371">
  <sodipodi:namedview
     pagecolor="#ffffff"
     bordercolor="#666666"
     borderopacity="1"
     objecttolerance="10"
     gridtolerance="10"
     guidetolerance="10"
     inkscape:pageopacity="0"
     inkscape:pageshadow="2"
     inkscape:window-width="1673"
     inkscape:window-height="857"
     id="namedview6"
     showgrid="false"
     inkscape:zoom="5.6568542"
     inkscape:cx="26.447282"
     inkscape:cy="53.611136"
     inkscape:window-x="70"
     inkscape:window-y="72"
     inkscape:window-maximized="0"
     inkscape:current-layer="svg8435" />
  <defs
     id="defs8429" />
  <metadata
     id="metadata8432">
    <rdf:RDF>
      <cc:Work
         rdf:about="">
        <dc:format>image/svg+xml</dc:format>
        <dc:type
           rdf:resource="http://purl.org/dc/dcmitype/StillImage" />
        <dc:title></dc:title>
      </cc:Work>
    </rdf:RDF>
  </metadata>
  <path
     style="fill:#030000;fill-opacity:1;stroke:none;stroke-width:0;stroke-miterlimit:4;stroke-dasharray:none;stroke-dashoffset:0;stroke-opacity:0"
     d="M 14.231695,1.8512957 7.3159884,14.226203 0.44919153,26.513527 4.41378,24.224973 9.3298471,15.427351 14.231695,6.6558924 Z m 0.727971,0 v 4.8045967 l 4.901848,8.7714586 4.885924,8.743025 3.96402,2.289122 -6.836086,-12.233295 z M 4.7851581,24.850571 0.624359,27.25287 H 14.59568 28.630699 l -4.1608,-2.402299 H 14.59568 Z"
     id="path8417"
     inkscape:connector-curvature="0" />
</svg>

<svg width="110" height="110" version="1.1" viewBox="0 0 29.104166 29.104166" xmlns="http://www.w3.org/2000/svg">
 <path d="m14.232 1.8513-6.9157 12.375-6.8668 12.287 3.9646-2.2886 4.9161-8.7976 4.9018-8.7715zm0.72797 0v4.8046l4.9018 8.7715 4.8859 8.743 3.964 2.2891-6.8361-12.233zm-10.175 22.999-4.1608 2.4023h28.006l-4.1608-2.4023h-9.8742z" fill="#030000"/>
</svg>
